; generated by PrusaSlicer 2.2.0 on 2020-06-07 at 02:46:29 UTC

; 

; external perimeters extrusion width = 0.45mm
; perimeters extrusion width = 0.45mm
; infill extrusion width = 0.45mm
; solid infill extrusion width = 0.45mm
; top infill extrusion width = 0.40mm
; first layer extrusion width = 0.42mm

M73 P0 R36
M73 Q0 S36
M201 X1000 Y1000 Z200 E5000 ; sets maximum accelerations, mm/sec^2
M203 X200 Y200 Z12 E120 ; sets maximum feedrates, mm/sec
M204 P1250 R1250 T1250 ; sets acceleration (P, T) and retract acceleration (R), mm/sec^2
M205 X8.00 Y8.00 Z0.40 E4.50 ; sets the jerk limits, mm/sec
M205 S0 T0 ; sets the minimum extruding and travel feed rate, mm/sec
M107
M862.3 P "MK3S" ; printer model check
M862.1 P0.4 ; nozzle diameter check
M115 U3.9.0 ; tell printer latest fw version
G90 ; use absolute coordinates
M83 ; extruder relative mode
M104 S230 ; set extruder temp
M140 S85 ; set bed temp
M190 S85 ; wait for bed temp
M109 S230 ; wait for extruder temp
G28 W ; home all without mesh bed level
G80 ; mesh bed leveling
G1 Y-3.0 F1000.0 ; go outside print area
G92 E0.0
G1 X60.0 E9.0 F1000.0 ; intro line
M73 Q0 S36
M73 P0 R36
G1 X100.0 E12.5 F1000.0 ; intro line
G92 E0.0
M221 S95
G21 ; set units to millimeters
G90 ; use absolute coordinates
M83 ; use relative distances for extrusion
M900 K0.12 ; Filament gcode LA 1.5
M900 K45 ; Filament gcode LA 1.0
;BEFORE_LAYER_CHANGE
G92 E0.0
;0.2


G1 E-1.40000 F2100.00000
G1 Z0.200 F10800.000
;AFTER_LAYER_CHANGE
;0.2
G1 Z0.400
G1 X83.336 Y96.229
G1 Z0.200
G1 E1.40000 F2100.00000
M204 S1000
G1 F1200.000
G1 X83.999 Y95.893 E0.02331
G1 X84.733 Y95.777 E0.02331
G1 X184.793 Y96.093 E3.13732
G1 X185.698 Y96.298 E0.02907
G1 X186.454 Y96.834 E0.02907
G1 X186.949 Y97.618 E0.02907
G1 X187.105 Y98.532 E0.02907
G1 X187.003 Y99.162 E0.02000
G1 X186.738 Y99.739 E0.01989
G1 X186.331 Y100.225 E0.01989
G1 X185.806 Y100.588 E0.02000
G1 X177.581 Y103.367 E0.27224
G1 X168.348 Y106.162 E0.30246
G1 X158.860 Y108.734 E0.30823
G1 X150.644 Y110.716 E0.26498
G1 X142.891 Y112.356 E0.24847
G1 X136.847 Y113.454 E0.19260
G1 X130.955 Y114.343 E0.18684
G1 X126.503 Y114.875 E0.14059
G1 X122.652 Y115.222 E0.12124
G1 X118.818 Y115.447 E0.12041
G1 X112.928 Y115.518 E0.18469
G1 X108.364 Y115.292 E0.14328
G1 X104.732 Y114.899 E0.11454
G1 X101.323 Y114.319 E0.10845
G1 X98.488 Y113.647 E0.09135
G1 X95.500 Y112.712 E0.09816
G1 X93.306 Y111.835 E0.07407
G1 X91.264 Y110.835 E0.07130
G1 X88.670 Y109.213 E0.09594
G1 X86.594 Y107.486 E0.08466
G1 X85.040 Y105.761 E0.07281
G1 X83.828 Y103.909 E0.06940
G1 X83.237 Y102.666 E0.04314
G1 X82.852 Y101.574 E0.03629
G1 X82.599 Y100.573 E0.03238
G1 X82.412 Y99.359 E0.03852
G1 X82.354 Y98.085 E0.03998
G1 X82.470 Y97.420 E0.02119
G1 X82.809 Y96.754 E0.02343
G1 X83.294 Y96.272 E0.02143
G1 F8640.000
G1 X83.999 Y95.893 E-0.18490
G1 X84.733 Y95.777 E-0.17168
G1 X88.949 Y95.791 E-0.97342
G1 E-0.07000 F2100.00000
G1 Z0.400 F10800.000
G1 X81.874 Y94.370
G1 Z0.200
G1 E1.40000 F2100.00000
G1 F1200.000
G1 X83.355 Y93.602 E0.05233
G1 X84.302 Y93.440 E0.03012
G1 X185.554 Y93.758 E3.17469
G1 X187.107 Y94.247 E0.05108
G1 X187.313 Y94.374 E0.00757
G1 X188.442 Y95.348 E0.04676
G1 X188.869 Y95.981 E0.02394
G1 X189.156 Y96.620 E0.02195
G1 X189.515 Y98.909 E0.07265
G1 X189.445 Y99.511 E0.01900
G1 X189.271 Y100.166 E0.02124
G1 X188.671 Y101.290 E0.03997
G1 X188.268 Y101.758 E0.01936
G1 X186.999 Y102.680 E0.04917
G1 X178.239 Y105.610 E0.28963
G1 X169.024 Y108.399 E0.30188
G1 X159.460 Y110.993 E0.31070
G1 X151.161 Y112.995 E0.26766
G1 X143.376 Y114.642 E0.24949
G1 X137.254 Y115.755 E0.19509
G1 X131.294 Y116.655 E0.18902
G1 X126.778 Y117.195 E0.14258
G1 X122.853 Y117.550 E0.12359
G1 X118.924 Y117.782 E0.12338
G1 X115.930 Y117.864 E0.09393
G1 X112.921 Y117.855 E0.09435
G1 X110.651 Y117.779 E0.07122
G1 X108.208 Y117.624 E0.07675
G1 X106.187 Y117.433 E0.06365
G1 X104.363 Y117.207 E0.05763
G1 X102.520 Y116.921 E0.05847
G1 X100.885 Y116.614 E0.05216
G1 X99.387 Y116.286 E0.04808
G1 X97.820 Y115.887 E0.05071
G1 X95.975 Y115.341 E0.06032
G1 X94.695 Y114.905 E0.04240
G1 X93.619 Y114.498 E0.03607
G1 X92.433 Y114.004 E0.04029
G1 X91.488 Y113.570 E0.03262
G1 X90.222 Y112.928 E0.04450
G1 X89.071 Y112.273 E0.04152
G1 X88.124 Y111.676 E0.03509
G1 X86.780 Y110.719 E0.05173
G1 X85.529 Y109.684 E0.05092
G1 X84.576 Y108.775 E0.04130
G1 X83.757 Y107.884 E0.03795
G1 X83.226 Y107.235 E0.02626
G1 X82.748 Y106.590 E0.02518
G1 X82.085 Y105.570 E0.03815
G1 X81.516 Y104.526 E0.03728
G1 X81.085 Y103.575 E0.03275
G1 X80.829 Y102.904 E0.02251
G1 X80.597 Y102.186 E0.02367
G1 X80.394 Y101.425 E0.02469
G1 X80.235 Y100.651 E0.02478
G1 X80.082 Y99.534 E0.03534
G1 X80.008 Y97.787 E0.05480
G1 X80.220 Y96.663 E0.03588
G1 X80.733 Y95.598 E0.03707
G1 X81.833 Y94.414 E0.05066
G1 X82.078 Y94.689 F10800.000
G1 F1200.000
G1 X83.450 Y93.969 E0.04859
G1 X84.318 Y93.817 E0.02762
G1 X185.524 Y94.135 E3.17325
G1 X186.932 Y94.581 E0.04633
G1 X187.081 Y94.671 E0.00544
G1 X188.144 Y95.581 E0.04387
G1 X188.547 Y96.178 E0.02259
G1 X188.801 Y96.750 E0.01962
G1 X189.137 Y98.892 E0.06799
G1 X189.077 Y99.428 E0.01691
G1 X188.913 Y100.047 E0.02009
G1 X188.349 Y101.093 E0.03725
G1 X188.027 Y101.467 E0.01547
G1 X186.851 Y102.331 E0.04576
G1 X178.127 Y105.250 E0.28844
G1 X168.917 Y108.037 E0.30170
G1 X159.363 Y110.628 E0.31036
G1 X151.075 Y112.627 E0.26733
G1 X143.301 Y114.272 E0.24916
G1 X137.190 Y115.383 E0.19474
G1 X131.240 Y116.281 E0.18866
G1 X126.736 Y116.821 E0.14222
G1 X122.827 Y117.174 E0.12306
G1 X118.911 Y117.405 E0.12301
G1 X115.928 Y117.487 E0.09357
G1 X112.925 Y117.477 E0.09417
G1 X110.672 Y117.402 E0.07068
G1 X108.235 Y117.248 E0.07657
G1 X106.225 Y117.058 E0.06329
G1 X104.418 Y116.834 E0.05710
G1 X102.587 Y116.549 E0.05810
G1 X100.957 Y116.244 E0.05198
G1 X99.471 Y115.918 E0.04770
G1 X97.916 Y115.523 E0.05030
G1 X96.086 Y114.981 E0.05986
G1 X94.820 Y114.549 E0.04194
G1 X93.761 Y114.149 E0.03548
G1 X92.581 Y113.657 E0.04009
G1 X91.648 Y113.229 E0.03218
G1 X90.396 Y112.594 E0.04402
G1 X89.268 Y111.952 E0.04069
G1 X88.339 Y111.365 E0.03447
G1 X87.015 Y110.424 E0.05092
G1 X85.774 Y109.398 E0.05049
G1 X84.841 Y108.506 E0.04048
G1 X84.045 Y107.641 E0.03686
G1 X83.521 Y107.000 E0.02595
G1 X83.061 Y106.379 E0.02422
G1 X82.412 Y105.383 E0.03728
G1 X81.850 Y104.352 E0.03682
G1 X81.435 Y103.435 E0.03156
G1 X81.186 Y102.783 E0.02189
G1 X80.960 Y102.084 E0.02304
G1 X80.760 Y101.333 E0.02436
G1 X80.605 Y100.581 E0.02407
G1 X80.458 Y99.508 E0.03396
G1 X80.382 Y97.836 E0.05248
G1 X80.586 Y96.759 E0.03437
G1 X81.060 Y95.789 E0.03384
G1 X82.037 Y94.733 E0.04512
G1 X82.284 Y95.006 F10800.000
G1 F1200.000
G1 X83.546 Y94.334 E0.04484
G1 X84.334 Y94.194 E0.02509
G1 X185.493 Y94.512 E3.17179
G1 X186.760 Y94.917 E0.04172
G1 X186.851 Y94.970 E0.00329
G1 X187.846 Y95.814 E0.04090
G1 X188.225 Y96.375 E0.02122
G1 X188.446 Y96.879 E0.01726
G1 X188.760 Y98.876 E0.06340
G1 X188.708 Y99.345 E0.01480
G1 X188.554 Y99.929 E0.01891
G1 X188.028 Y100.895 E0.03450
G1 X187.785 Y101.177 E0.01169
G1 X186.702 Y101.984 E0.04231
G1 X178.015 Y104.890 E0.28722
G1 X168.810 Y107.675 E0.30153
G1 X159.267 Y110.263 E0.31002
G1 X150.989 Y112.260 E0.26700
G1 X143.225 Y113.903 E0.24882
G1 X137.125 Y115.012 E0.19440
G1 X131.187 Y115.908 E0.18831
G1 X126.694 Y116.446 E0.14187
G1 X122.796 Y116.798 E0.12271
G1 X118.898 Y117.028 E0.12245
G1 X115.926 Y117.110 E0.09320
G1 X112.929 Y117.100 E0.09399
G1 X110.693 Y117.026 E0.07015
G1 X108.261 Y116.871 E0.07639
G1 X106.263 Y116.683 E0.06293
G1 X104.473 Y116.460 E0.05657
G1 X102.653 Y116.178 E0.05773
G1 X101.029 Y115.874 E0.05179
G1 X99.555 Y115.551 E0.04733
G1 X98.013 Y115.158 E0.04989
G1 X96.197 Y114.620 E0.05940
G1 X94.944 Y114.193 E0.04148
G1 X93.904 Y113.800 E0.03489
G1 X92.729 Y113.310 E0.03988
G1 X91.809 Y112.887 E0.03175
G1 X90.571 Y112.259 E0.04354
G1 X89.466 Y111.631 E0.03986
G1 X88.553 Y111.055 E0.03385
G1 X87.250 Y110.130 E0.05010
G1 X86.020 Y109.112 E0.05006
G1 X85.106 Y108.238 E0.03965
G1 X84.334 Y107.398 E0.03578
G1 X83.816 Y106.765 E0.02564
G1 X83.374 Y106.169 E0.02326
G1 X82.740 Y105.196 E0.03641
G1 X82.185 Y104.178 E0.03637
G1 X81.781 Y103.285 E0.03072
G1 X81.544 Y102.662 E0.02091
G1 X81.323 Y101.981 E0.02243
G1 X81.128 Y101.252 E0.02368
G1 X80.976 Y100.511 E0.02370
G1 X80.835 Y99.481 E0.03261
G1 X80.757 Y97.881 E0.05021
G1 X80.936 Y96.900 E0.03126
G1 X81.387 Y95.979 E0.03216
G1 X82.243 Y95.050 E0.03961
G1 X82.491 Y95.323 F10800.000
G1 F1200.000
G1 X83.644 Y94.700 E0.04108
G1 X84.350 Y94.571 E0.02251
G1 X185.462 Y94.889 E3.17031
G1 X186.625 Y95.273 E0.03838
G1 X187.549 Y96.047 E0.03780
G1 X187.902 Y96.571 E0.01981
G1 X188.091 Y97.006 E0.01487
G1 X188.382 Y98.862 E0.05891
G1 X188.340 Y99.263 E0.01266
G1 X188.195 Y99.809 E0.01771
G1 X187.707 Y100.696 E0.03173
G1 X187.541 Y100.889 E0.00801
G1 X186.553 Y101.636 E0.03882
G1 X177.903 Y104.530 E0.28598
G1 X168.704 Y107.314 E0.30136
G1 X159.171 Y109.899 E0.30968
G1 X150.903 Y111.893 E0.26667
G1 X143.150 Y113.533 E0.24849
G1 X137.060 Y114.640 E0.19406
G1 X131.133 Y115.535 E0.18795
G1 X126.652 Y116.071 E0.14151
G1 X122.765 Y116.422 E0.12236
G1 X118.884 Y116.651 E0.12190
M73 Q2 S35
G1 X115.925 Y116.733 E0.09284
G1 X112.933 Y116.723 E0.09381
G1 X110.708 Y116.649 E0.06979
M73 P2 R35
G1 X108.288 Y116.495 E0.07603
G1 X106.301 Y116.307 E0.06257
G1 X104.528 Y116.087 E0.05605
G1 X102.714 Y115.806 E0.05755
G1 X101.102 Y115.504 E0.05142
G1 X99.645 Y115.184 E0.04677
G1 X98.117 Y114.795 E0.04945
G1 X96.315 Y114.262 E0.05893
G1 X95.075 Y113.840 E0.04107
G1 X94.046 Y113.450 E0.03450
G1 X92.878 Y112.964 E0.03968
G1 X91.976 Y112.549 E0.03109
G1 X90.753 Y111.929 E0.04300
G1 X89.656 Y111.305 E0.03958
G1 X88.767 Y110.745 E0.03296
G1 X87.485 Y109.834 E0.04929
G1 X86.275 Y108.834 E0.04921
G1 X85.379 Y107.978 E0.03886
G1 X84.615 Y107.147 E0.03541
G1 X84.116 Y106.536 E0.02471
G1 X83.687 Y105.958 E0.02259
G1 X83.060 Y104.996 E0.03599
G1 X82.525 Y104.016 E0.03501
G1 X82.127 Y103.135 E0.03032
G1 X81.898 Y102.532 E0.02022
G1 X81.686 Y101.879 E0.02152
G1 X81.496 Y101.170 E0.02300
G1 X81.349 Y100.454 E0.02294
G1 X81.209 Y99.438 E0.03215
G1 X81.135 Y97.884 E0.04877
G1 X81.286 Y97.042 E0.02682
G1 X81.713 Y96.169 E0.03048
G1 X82.451 Y95.367 E0.03416
G1 X82.701 Y95.638 F10800.000
G1 F1200.000
G1 X83.744 Y95.065 E0.03732
G1 X84.367 Y94.948 E0.01989
G1 X185.430 Y95.266 E3.16877
G1 X186.425 Y95.597 E0.03289
G1 X187.252 Y96.281 E0.03363
G1 X187.579 Y96.766 E0.01836
G1 X187.734 Y97.131 E0.01244
G1 X188.004 Y98.849 E0.05452
G1 X187.971 Y99.182 E0.01049
G1 X187.837 Y99.689 E0.01646
G1 X187.387 Y100.495 E0.02893
G1 X187.295 Y100.603 E0.00446
G1 X186.403 Y101.289 E0.03528
G1 X177.791 Y104.170 E0.28472
G1 X168.597 Y106.952 E0.30119
G1 X159.075 Y109.534 E0.30934
G1 X150.818 Y111.526 E0.26633
G1 X143.075 Y113.164 E0.24815
G1 X136.996 Y114.269 E0.19372
G1 X131.080 Y115.162 E0.18759
G1 X126.610 Y115.697 E0.14115
G1 X122.734 Y116.047 E0.12201
G1 X118.871 Y116.274 E0.12135
G1 X115.923 Y116.356 E0.09247
G1 X112.937 Y116.346 E0.09363
G1 X110.724 Y116.272 E0.06943
G1 X108.315 Y116.119 E0.07567
G1 X106.340 Y115.932 E0.06221
G1 X104.583 Y115.714 E0.05552
G1 X102.775 Y115.434 E0.05737
G1 X101.174 Y115.134 E0.05105
G1 X99.735 Y114.818 E0.04620
G1 X98.220 Y114.433 E0.04901
G1 X96.433 Y113.904 E0.05845
G1 X95.205 Y113.486 E0.04065
G1 X94.188 Y113.101 E0.03410
G1 X93.026 Y112.617 E0.03948
G1 X92.144 Y112.211 E0.03044
G1 X90.936 Y111.599 E0.04246
G1 X89.846 Y110.980 E0.03931
G1 X88.981 Y110.434 E0.03207
G1 X87.709 Y109.531 E0.04891
G1 X86.531 Y108.557 E0.04793
G1 X85.653 Y107.719 E0.03807
G1 X84.896 Y106.895 E0.03505
G1 X84.416 Y106.308 E0.02379
G1 X83.999 Y105.747 E0.02191
G1 X83.380 Y104.797 E0.03558
G1 X82.866 Y103.854 E0.03366
G1 X82.473 Y102.985 E0.02992
G1 X82.252 Y102.403 E0.01953
G1 X82.049 Y101.777 E0.02063
G1 X81.864 Y101.089 E0.02233
G1 X81.721 Y100.396 E0.02218
G1 X81.584 Y99.395 E0.03169
G1 X81.512 Y97.887 E0.04733
G1 X81.637 Y97.184 E0.02239
G1 X82.040 Y96.359 E0.02880
G1 X82.660 Y95.682 E0.02877
G1 X82.936 Y95.938 F10800.000
G1 F1200.000
G1 X83.844 Y95.429 E0.03265
G1 X84.385 Y95.325 E0.01726
G1 X185.397 Y95.643 E3.16719
G1 X186.269 Y95.942 E0.02890
G1 X186.954 Y96.514 E0.02796
G1 X187.256 Y96.961 E0.01692
G1 X187.377 Y97.254 E0.00995
G1 X187.627 Y98.838 E0.05029
G1 X187.603 Y99.101 E0.00828
G1 X187.479 Y99.569 E0.01517
G1 X187.069 Y100.293 E0.02609
G1 X186.252 Y100.941 E0.03271
G1 X177.679 Y103.809 E0.28342
G1 X168.491 Y106.590 E0.30102
G1 X158.979 Y109.169 E0.30900
G1 X150.732 Y111.159 E0.26600
G1 X142.999 Y112.794 E0.24781
G1 X136.931 Y113.897 E0.19337
G1 X131.026 Y114.788 E0.18724
G1 X126.568 Y115.322 E0.14079
G1 X122.703 Y115.671 E0.12166
G1 X118.858 Y115.897 E0.12079
G1 X115.921 Y115.979 E0.09210
G1 X112.941 Y115.969 E0.09345
G1 X110.739 Y115.895 E0.06908
G1 X108.342 Y115.743 E0.07531
G1 X106.378 Y115.557 E0.06185
G1 X104.637 Y115.341 E0.05499
G1 X102.835 Y115.062 E0.05718
G1 X101.246 Y114.764 E0.05068
G1 X99.825 Y114.452 E0.04564
G1 X98.324 Y114.070 E0.04857
G1 X96.550 Y113.546 E0.05798
G1 X95.336 Y113.132 E0.04024
G1 X94.330 Y112.752 E0.03371
G1 X93.174 Y112.270 E0.03927
G1 X92.311 Y111.873 E0.02978
G1 X91.118 Y111.269 E0.04192
G1 X90.036 Y110.654 E0.03903
G1 X89.195 Y110.124 E0.03118
G1 X87.933 Y109.228 E0.04853
G1 X86.776 Y108.271 E0.04706
G1 X85.926 Y107.459 E0.03686
G1 X85.178 Y106.644 E0.03468
G1 X84.716 Y106.080 E0.02287
G1 X84.312 Y105.536 E0.02123
G1 X83.700 Y104.597 E0.03516
G1 X83.201 Y103.680 E0.03273
G1 X82.823 Y102.845 E0.02872
G1 X82.609 Y102.281 E0.01892
G1 X82.411 Y101.674 E0.02002
G1 X82.232 Y101.007 E0.02165
G1 X82.092 Y100.326 E0.02180
G1 X81.960 Y99.369 E0.03030
G1 X81.890 Y97.892 E0.04636
G1 X82.003 Y97.280 E0.01951
G1 X82.365 Y96.552 E0.02548
G1 X82.895 Y95.982 E0.02441
G1 F8640.000
G1 X83.844 Y95.429 E-0.25368
G1 X84.385 Y95.325 E-0.12710
G1 X88.496 Y95.338 E-0.94923
G1 E-0.07000 F2100.00000
G1 Z0.400 F10800.000
G1 X185.323 Y96.020
G1 Z0.200
G1 E1.40000 F2100.00000
G1 F1200.000
G1 X185.433 Y96.045 E0.00352
G1 X185.901 Y96.211 F10800.000
G1 F1200.000
G1 X186.110 Y96.285 E0.00695
G1 X186.656 Y96.746 E0.02240
G1 X186.931 Y97.154 E0.01545
G1 X187.020 Y97.378 E0.00754
G1 F8640.000
G1 X186.931 Y97.154 E-0.05553
G1 X186.656 Y96.746 E-0.11376
G1 X186.110 Y96.285 E-0.16497
G1 X185.901 Y96.211 E-0.05118
G1 E-1.01456 F2100.00000
G1 Z0.400 F10800.000
G1 X187.248 Y98.825
G1 Z0.200
G1 E1.40000 F2100.00000
G1 F1200.000
G1 X187.234 Y99.022 E0.00620
G1 X187.189 Y99.191 E0.00550
G1 X187.179 Y99.228 F10800.000
G1 F1200.000
G1 X187.121 Y99.448 E0.00711
G1 X186.917 Y99.802 E0.01283
G1 X186.885 Y99.857 F10800.000
G1 F1200.000
G1 X186.769 Y100.058 E0.00726
G1 X186.610 Y100.186 E0.00640
G1 X186.305 Y99.962 F10800.000
G1 F1200.000
G1 X185.948 Y100.248 E0.01433
G1 X177.451 Y103.091 E0.28096
G1 X168.283 Y105.865 E0.30033
G1 X158.787 Y108.440 E0.30849
G1 X150.565 Y110.423 E0.26517
G1 X142.854 Y112.054 E0.24714
G1 X136.802 Y113.154 E0.19286
G1 X130.925 Y114.041 E0.18634
G1 X126.484 Y114.572 E0.14026
G1 X122.647 Y114.919 E0.12078
G1 X118.831 Y115.144 E0.11987
G1 X115.918 Y115.225 E0.09137
G1 X112.955 Y115.215 E0.09290
G1 X110.776 Y115.142 E0.06836
G1 X108.395 Y114.991 E0.07478
G1 X106.455 Y114.807 E0.06113
G1 X104.742 Y114.594 E0.05412
G1 X102.957 Y114.317 E0.05663
G1 X101.391 Y114.024 E0.04994
G1 X100.005 Y113.719 E0.04451
G1 X98.523 Y113.343 E0.04791
G1 X96.779 Y112.827 E0.05704
G1 X95.596 Y112.424 E0.03917
G1 X94.614 Y112.053 E0.03292
G1 X93.470 Y111.576 E0.03886
G1 X92.639 Y111.194 E0.02869
G1 X91.475 Y110.605 E0.04090
G1 X90.424 Y110.007 E0.03792
G1 X89.623 Y109.503 E0.02967
G1 X88.381 Y108.621 E0.04776
G1 X87.268 Y107.698 E0.04532
G1 X86.465 Y106.931 E0.03484
G1 X85.748 Y106.150 E0.03323
G1 X85.311 Y105.616 E0.02165
G1 X84.937 Y105.114 E0.01960
G1 X84.347 Y104.211 E0.03384
G1 X83.870 Y103.332 E0.03135
G1 X83.520 Y102.556 E0.02670
G1 X83.323 Y102.039 E0.01735
G1 X83.137 Y101.469 E0.01880
G1 X82.964 Y100.823 E0.02098
G1 X82.835 Y100.198 E0.01999
G1 X82.713 Y99.316 E0.02794
G1 X82.645 Y97.901 E0.04441
G1 X82.718 Y97.517 E0.01226
G1 X82.956 Y97.024 E0.01715
G1 X83.465 Y96.476 E0.02345
G1 X84.096 Y96.140 E0.02242
