; generated by PrusaSlicer 2.2.0 on 2020-05-30 at 18:10:13 UTC

; 

; external perimeters extrusion width = 0.45mm
; perimeters extrusion width = 0.45mm
; infill extrusion width = 0.45mm
; solid infill extrusion width = 0.45mm
; top infill extrusion width = 0.40mm
; first layer extrusion width = 0.42mm

M73 P0 R59
M73 Q0 S60
M201 X1000 Y1000 Z200 E5000 ; sets maximum accelerations, mm/sec^2
M203 X200 Y200 Z12 E120 ; sets maximum feedrates, mm/sec
M204 P1250 R1250 T1250 ; sets acceleration (P, T) and retract acceleration (R), mm/sec^2
M205 X8.00 Y8.00 Z0.40 E4.50 ; sets the jerk limits, mm/sec
M205 S0 T0 ; sets the minimum extruding and travel feed rate, mm/sec
M107
M862.3 P "MK3S" ; printer model check
M862.1 P0.4 ; nozzle diameter check
M115 U3.9.0 ; tell printer latest fw version
G90 ; use absolute coordinates
M83 ; extruder relative mode
M104 S230 ; set extruder temp
M140 S85 ; set bed temp
M190 S85 ; wait for bed temp
M109 S230 ; wait for extruder temp
G28 W ; home all without mesh bed level
G80 ; mesh bed leveling
G1 Y-3.0 F1000.0 ; go outside print area
G92 E0.0
G1 X60.0 E9.0 F1000.0 ; intro line
M73 Q0 S60
M73 P0 R59
G1 X100.0 E12.5 F1000.0 ; intro line
G92 E0.0
M221 S95
G21 ; set units to millimeters
G90 ; use absolute coordinates
M83 ; use relative distances for extrusion
M900 K0.12 ; Filament gcode LA 1.5
M900 K45 ; Filament gcode LA 1.0
;BEFORE_LAYER_CHANGE
G92 E0.0
;0.2


G1 E-1.40000 F2100.00000
G1 Z0.200 F10800.000
;AFTER_LAYER_CHANGE
;0.2
G1 Z0.400
G1 X187.947 Y105.823
G1 Z0.200
G1 E1.40000 F2100.00000
M204 S1000
G1 F1200.000
G1 X187.327 Y106.424 E0.02708
G1 X186.853 Y106.667 E0.01668
G1 X184.766 Y107.393 E0.06928
G1 X179.692 Y109.071 E0.16757
G1 X172.113 Y111.396 E0.24858
G1 X166.033 Y113.119 E0.19814
G1 X159.950 Y114.719 E0.19720
G1 X153.383 Y116.307 E0.21185
G1 X148.320 Y117.423 E0.16256
G1 X139.687 Y119.083 E0.27562
G1 X134.601 Y119.892 E0.16150
G1 X131.031 Y120.371 E0.11294
G1 X123.864 Y121.072 E0.22577
G1 X117.693 Y121.337 E0.19366
G1 X114.599 Y121.324 E0.09703
G1 X111.494 Y121.197 E0.09744
G1 X108.375 Y120.935 E0.09812
G1 X105.764 Y120.599 E0.08257
G1 X103.638 Y120.234 E0.06763
G1 X101.021 Y119.654 E0.08403
G1 X98.869 Y119.050 E0.07010
G1 X96.724 Y118.313 E0.07109
G1 X94.567 Y117.407 E0.07337
G1 X92.905 Y116.566 E0.05841
G1 X91.225 Y115.555 E0.06147
G1 X89.559 Y114.338 E0.06468
G1 X88.373 Y113.291 E0.04959
G1 X87.229 Y112.071 E0.05246
G1 X85.962 Y110.325 E0.06763
G1 X85.369 Y109.250 E0.03848
G1 X84.782 Y107.837 E0.04798
G1 X84.200 Y104.524 E0.10546
G1 X84.168 Y103.667 E0.02689
G1 X84.706 Y100.344 E0.10557
G1 X85.393 Y98.630 E0.05788
G1 X86.034 Y97.489 E0.04102
G1 X87.157 Y95.946 E0.05987
G1 X88.976 Y94.084 E0.08161
G1 X91.239 Y92.365 E0.08910
G1 X94.003 Y90.792 E0.09972
G1 X97.251 Y89.421 E0.11053
G1 X100.466 Y88.421 E0.10556
G1 X104.170 Y87.597 E0.11896
G1 X107.855 Y87.052 E0.11680
G1 X112.517 Y86.677 E0.14665
G1 X116.668 Y86.586 E0.13019
G1 X120.789 Y86.682 E0.12926
G1 X125.410 Y86.976 E0.14516
G1 X131.017 Y87.558 E0.17676
G1 X136.120 Y88.265 E0.16152
G1 X141.716 Y89.206 E0.17793
G1 X148.303 Y90.504 E0.21052
G1 X153.382 Y91.623 E0.16307
G1 X159.971 Y93.216 E0.21255
G1 X166.044 Y94.814 E0.19687
G1 X174.631 Y97.284 E0.28018
G1 X181.723 Y99.518 E0.23312
G1 X186.924 Y101.291 E0.17229
G1 X187.723 Y101.838 E0.03036
G1 X188.025 Y102.224 E0.01538
G1 X188.240 Y102.661 E0.01526
G1 X188.386 Y103.413 E0.02402
G1 X188.385 Y104.551 E0.03568
G1 X188.312 Y105.036 E0.01538
G1 X187.972 Y105.768 E0.02531
G1 F8640.000
G1 X187.327 Y106.424 E-0.21241
G1 X186.853 Y106.667 E-0.12287
G1 X184.766 Y107.393 E-0.51021
G1 X182.774 Y108.052 E-0.48450
G1 E-0.07000 F2100.00000
G1 Z0.400 F10800.000
G1 X190.701 Y103.956
G1 Z0.200
G1 E1.40000 F2100.00000
G1 F1200.000
G1 X190.792 Y104.753 E0.02515
G1 X190.639 Y105.882 E0.03571
G1 X190.448 Y106.367 E0.01633
G1 X189.772 Y107.504 E0.04149
G1 X189.336 Y107.943 E0.01940
G1 X188.470 Y108.548 E0.03313
G1 X185.511 Y109.608 E0.09854
G1 X180.425 Y111.290 E0.16798
G1 X175.316 Y112.880 E0.16776
G1 X170.724 Y114.231 E0.15008
G1 X166.665 Y115.368 E0.13217
G1 X163.593 Y116.192 E0.09971
G1 X160.542 Y116.980 E0.09880
G1 X157.980 Y117.616 E0.08276
G1 X153.909 Y118.583 E0.13121
G1 X148.809 Y119.708 E0.16373
G1 X144.195 Y120.637 E0.14758
G1 X140.083 Y121.385 E0.13106
G1 X136.490 Y121.972 E0.11414
G1 X132.876 Y122.490 E0.11446
G1 X129.738 Y122.876 E0.09912
G1 X127.184 Y123.142 E0.08053
G1 X125.587 Y123.284 E0.05025
G1 X122.491 Y123.502 E0.09733
G1 X119.797 Y123.625 E0.08454
G1 X116.649 Y123.681 E0.09872
G1 X114.582 Y123.661 E0.06481
G1 X112.945 Y123.609 E0.05137
G1 X110.276 Y123.455 E0.08383
G1 X107.597 Y123.200 E0.08435
G1 X106.475 Y123.060 E0.03546
G1 X104.860 Y122.822 E0.05119
G1 X103.193 Y122.527 E0.05308
G1 X101.032 Y122.062 E0.06929
G1 X99.883 Y121.772 E0.03717
G1 X98.725 Y121.448 E0.03769
G1 X97.596 Y121.097 E0.03709
G1 X96.465 Y120.709 E0.03749
G1 X95.310 Y120.270 E0.03872
G1 X94.162 Y119.789 E0.03904
G1 X92.974 Y119.235 E0.04108
G1 X91.813 Y118.632 E0.04102
G1 X91.139 Y118.250 E0.02430
G1 X89.966 Y117.524 E0.04325
G1 X89.284 Y117.058 E0.02591
G1 X88.140 Y116.195 E0.04490
G1 X87.422 Y115.590 E0.02946
G1 X86.727 Y114.949 E0.02966
G1 X86.061 Y114.273 E0.02975
G1 X85.388 Y113.512 E0.03186
G1 X84.726 Y112.669 E0.03360
G1 X83.987 Y111.574 E0.04143
G1 X83.223 Y110.177 E0.04992
G1 X82.543 Y108.519 E0.05617
G1 X81.886 Y104.848 E0.11695
G1 X81.817 Y103.952 E0.02816
G1 X81.877 Y103.148 E0.02528
G1 X82.403 Y99.904 E0.10305
G1 X83.267 Y97.662 E0.07535
G1 X84.013 Y96.313 E0.04833
G1 X84.697 Y95.302 E0.03827
G1 X85.387 Y94.419 E0.03514
G1 X86.076 Y93.641 E0.03259
G1 X86.753 Y92.956 E0.03017
G1 X87.400 Y92.359 E0.02760
G1 X88.070 Y91.791 E0.02757
G1 X89.281 Y90.874 E0.04762
G1 X90.502 Y90.065 E0.04593
G1 X91.767 Y89.323 E0.04598
G1 X93.048 Y88.659 E0.04525
G1 X94.762 Y87.883 E0.05897
G1 X96.495 Y87.210 E0.05829
G1 X97.616 Y86.826 E0.03714
G1 X98.749 Y86.475 E0.03720
G1 X100.432 Y86.015 E0.05472
G1 X102.089 Y85.629 E0.05333
G1 X103.759 Y85.297 E0.05340
G1 X105.449 Y85.016 E0.05371
G1 X107.567 Y84.733 E0.06701
G1 X109.241 Y84.561 E0.05274
G1 X111.369 Y84.400 E0.06694
G1 X112.953 Y84.320 E0.04973
G1 X114.533 Y84.270 E0.04957
G1 X116.698 Y84.249 E0.06787
G1 X118.805 Y84.277 E0.06607
G1 X120.879 Y84.348 E0.06505
G1 X122.478 Y84.427 E0.05022
G1 X125.581 Y84.645 E0.09753
G1 X127.170 Y84.787 E0.05001
G1 X129.766 Y85.057 E0.08185
G1 X132.869 Y85.439 E0.09802
G1 X136.456 Y85.953 E0.11362
G1 X138.553 Y86.286 E0.06656
G1 X142.134 Y86.908 E0.11397
G1 X146.747 Y87.796 E0.14729
G1 X151.328 Y88.765 E0.14681
G1 X153.909 Y89.347 E0.08295
G1 X157.968 Y90.311 E0.13082
G1 X160.540 Y90.950 E0.08310
G1 X163.613 Y91.743 E0.09948
G1 X169.186 Y93.262 E0.18114
G1 X172.782 Y94.296 E0.11730
G1 X177.843 Y95.825 E0.16576
G1 X180.423 Y96.640 E0.08483
G1 X185.502 Y98.319 E0.16773
G1 X188.539 Y99.417 E0.10125
G1 X189.318 Y99.972 E0.03000
G1 X189.769 Y100.422 E0.01998
G1 X190.448 Y101.563 E0.04163
G1 X190.637 Y102.042 E0.01615
G1 X190.793 Y103.201 E0.03667
G1 X190.708 Y103.897 E0.02197
G1 X190.321 Y103.957 F10800.000
G1 F1200.000
G1 X190.415 Y104.729 E0.02439
G1 X190.279 Y105.767 E0.03282
G1 X190.115 Y106.189 E0.01420
G1 X189.487 Y107.257 E0.03884
G1 X189.104 Y107.645 E0.01712
G1 X188.318 Y108.202 E0.03019
G1 X185.391 Y109.251 E0.09750
G1 X180.311 Y110.930 E0.16775
G1 X175.208 Y112.518 E0.16757
G1 X170.618 Y113.869 E0.15000
G1 X166.566 Y115.004 E0.13196
G1 X163.498 Y115.827 E0.09960
G1 X160.450 Y116.614 E0.09869
G1 X157.892 Y117.249 E0.08264
G1 X153.823 Y118.216 E0.13114
G1 X148.730 Y119.339 E0.16354
G1 X144.122 Y120.267 E0.14737
G1 X140.020 Y121.013 E0.13073
G1 X136.431 Y121.599 E0.11403
G1 X132.824 Y122.117 E0.11423
G1 X129.698 Y122.501 E0.09878
G1 X127.146 Y122.767 E0.08043
G1 X125.556 Y122.908 E0.05007
G1 X122.466 Y123.126 E0.09710
G1 X119.788 Y123.248 E0.08407
G1 X116.650 Y123.304 E0.09840
G1 X114.588 Y123.284 E0.06466
G1 X112.959 Y123.233 E0.05110
G1 X110.301 Y123.079 E0.08349
G1 X107.641 Y122.825 E0.08377
G1 X106.528 Y122.687 E0.03517
G1 X104.918 Y122.449 E0.05104
G1 X103.269 Y122.158 E0.05250
G1 X101.122 Y121.696 E0.06887
G1 X99.982 Y121.408 E0.03684
G1 X98.835 Y121.087 E0.03736
G1 X97.716 Y120.740 E0.03675
G1 X96.596 Y120.355 E0.03712
G1 X95.453 Y119.921 E0.03832
G1 X94.318 Y119.445 E0.03859
G1 X93.137 Y118.895 E0.04084
G1 X91.990 Y118.299 E0.04053
G1 X91.334 Y117.928 E0.02363
G1 X90.175 Y117.210 E0.04275
G1 X89.507 Y116.754 E0.02536
G1 X88.372 Y115.897 E0.04460
G1 X87.668 Y115.305 E0.02884
G1 X86.992 Y114.681 E0.02884
G1 X86.340 Y114.019 E0.02913
G1 X85.674 Y113.266 E0.03152
G1 X85.027 Y112.441 E0.03287
G1 X84.313 Y111.385 E0.03998
G1 X83.567 Y110.023 E0.04868
G1 X82.910 Y108.433 E0.05395
G1 X82.259 Y104.791 E0.11600
G1 X82.194 Y103.938 E0.02681
G1 X82.250 Y103.201 E0.02318
G1 X82.772 Y99.984 E0.10218
G1 X83.614 Y97.810 E0.07310
G1 X84.339 Y96.503 E0.04686
G1 X85.005 Y95.518 E0.03728
G1 X85.681 Y94.656 E0.03434
G1 X86.348 Y93.902 E0.03157
G1 X87.012 Y93.231 E0.02960
G1 X87.647 Y92.644 E0.02710
G1 X88.302 Y92.088 E0.02695
G1 X89.494 Y91.185 E0.04690
G1 X90.706 Y90.382 E0.04558
G1 X91.954 Y89.651 E0.04533
G1 X93.209 Y89.000 E0.04433
G1 X94.903 Y88.232 E0.05833
G1 X96.621 Y87.566 E0.05777
G1 X97.730 Y87.186 E0.03676
G1 X98.857 Y86.836 E0.03701
G1 X100.521 Y86.381 E0.05409
G1 X102.171 Y85.997 E0.05312
G1 X103.830 Y85.668 E0.05301
G1 X105.502 Y85.389 E0.05315
G1 X107.614 Y85.108 E0.06682
G1 X109.272 Y84.937 E0.05223
G1 X111.391 Y84.777 E0.06663
G1 X112.967 Y84.697 E0.04949
G1 X114.543 Y84.647 E0.04945
G1 X116.695 Y84.626 E0.06747
G1 X118.794 Y84.654 E0.06582
G1 X120.864 Y84.725 E0.06495
G1 X122.454 Y84.803 E0.04990
G1 X125.549 Y85.021 E0.09730
G1 X127.132 Y85.162 E0.04982
G1 X129.726 Y85.432 E0.08175
G1 X132.817 Y85.812 E0.09767
G1 X136.401 Y86.326 E0.11352
G1 X138.490 Y86.658 E0.06630
G1 X142.068 Y87.279 E0.11387
G1 X146.671 Y88.166 E0.14697
G1 X151.249 Y89.134 E0.14671
G1 X153.823 Y89.714 E0.08273
G1 X157.880 Y90.678 E0.13076
G1 X160.447 Y91.315 E0.08293
G1 X163.515 Y92.107 E0.09934
G1 X169.086 Y93.626 E0.18106
G1 X172.674 Y94.657 E0.11706
G1 X177.733 Y96.186 E0.16569
G1 X180.306 Y96.998 E0.08460
G1 X185.381 Y98.676 E0.16762
G1 X188.341 Y99.739 E0.09860
G1 X189.086 Y100.270 E0.02867
G1 X189.485 Y100.671 E0.01773
G1 X190.115 Y101.741 E0.03894
G1 X190.278 Y102.158 E0.01405
G1 X190.416 Y103.180 E0.03232
G1 X190.328 Y103.897 E0.02268
G1 X189.941 Y103.959 F10800.000
G1 F1200.000
G1 X190.038 Y104.707 E0.02365
G1 X189.919 Y105.654 E0.02992
G1 X189.781 Y106.013 E0.01206
G1 X189.201 Y107.011 E0.03618
G1 X188.869 Y107.350 E0.01486
G1 X188.165 Y107.856 E0.02719
G1 X185.270 Y108.893 E0.09643
G1 X180.194 Y110.572 E0.16762
G1 X175.097 Y112.158 E0.16737
G1 X170.515 Y113.506 E0.14975
G1 X166.465 Y114.641 E0.13189
G1 X163.401 Y115.463 E0.09947
G1 X160.357 Y116.248 E0.09858
G1 X157.802 Y116.883 E0.08253
G1 X153.737 Y117.849 E0.13100
G1 X148.650 Y118.970 E0.16334
G1 X144.053 Y119.897 E0.14704
G1 X139.958 Y120.642 E0.13051
G1 X136.372 Y121.227 E0.11392
G1 X132.773 Y121.743 E0.11400
G1 X129.657 Y122.127 E0.09843
G1 X127.108 Y122.391 E0.08034
G1 X125.524 Y122.533 E0.04988
G1 X122.442 Y122.749 E0.09686
G1 X119.779 Y122.871 E0.08361
G1 X116.651 Y122.927 E0.09807
G1 X114.594 Y122.906 E0.06451
G1 X112.973 Y122.856 E0.05083
G1 X110.333 Y122.703 E0.08292
G1 X107.685 Y122.451 E0.08340
G1 X106.581 Y122.314 E0.03488
G1 X104.976 Y122.076 E0.05089
G1 X103.345 Y121.789 E0.05192
G1 X101.211 Y121.329 E0.06845
G1 X100.081 Y121.044 E0.03651
G1 X98.944 Y120.726 E0.03703
G1 X97.835 Y120.382 E0.03640
G1 X96.727 Y120.001 E0.03675
G1 X95.596 Y119.572 E0.03792
G1 X94.474 Y119.102 E0.03815
G1 X93.300 Y118.555 E0.04059
G1 X92.167 Y117.966 E0.04004
G1 X91.530 Y117.605 E0.02297
G1 X90.384 Y116.896 E0.04224
G1 X89.731 Y116.450 E0.02480
G1 X88.603 Y115.600 E0.04429
G1 X87.921 Y115.025 E0.02797
G1 X87.258 Y114.413 E0.02829
G1 X86.619 Y113.765 E0.02851
G1 X85.960 Y113.020 E0.03118
G1 X85.328 Y112.214 E0.03213
G1 X84.639 Y111.196 E0.03853
G1 X83.911 Y109.869 E0.04746
G1 X83.278 Y108.346 E0.05171
G1 X82.631 Y104.734 E0.11505
G1 X82.571 Y103.925 E0.02544
G1 X82.623 Y103.254 E0.02110
G1 X83.141 Y100.064 E0.10132
G1 X83.961 Y97.959 E0.07083
G1 X84.664 Y96.694 E0.04540
G1 X85.314 Y95.735 E0.03630
G1 X85.974 Y94.893 E0.03355
G1 X86.620 Y94.163 E0.03056
G1 X87.271 Y93.505 E0.02903
G1 X87.894 Y92.929 E0.02660
G1 X88.534 Y92.385 E0.02634
G1 X89.708 Y91.496 E0.04617
G1 X90.910 Y90.699 E0.04523
G1 X92.140 Y89.979 E0.04469
G1 X93.369 Y89.341 E0.04340
G1 X95.045 Y88.582 E0.05768
G1 X96.747 Y87.921 E0.05725
G1 X97.844 Y87.545 E0.03638
G1 X98.966 Y87.197 E0.03682
G1 X100.610 Y86.748 E0.05345
G1 X102.254 Y86.365 E0.05291
G1 X103.900 Y86.038 E0.05263
G1 X105.555 Y85.763 E0.05259
G1 X107.662 Y85.482 E0.06664
G1 X109.303 Y85.313 E0.05173
G1 X111.412 Y85.153 E0.06633
G1 X112.981 Y85.074 E0.04925
G1 X114.553 Y85.024 E0.04933
G1 X116.692 Y85.003 E0.06708
G1 X118.783 Y85.031 E0.06557
G1 X120.850 Y85.101 E0.06484
G1 X122.429 Y85.180 E0.04958
G1 X125.518 Y85.397 E0.09708
G1 X127.095 Y85.537 E0.04964
G1 X129.685 Y85.807 E0.08165
G1 X132.766 Y86.186 E0.09732
G1 X136.346 Y86.699 E0.11342
G1 X138.426 Y87.030 E0.06604
G1 X142.002 Y87.650 E0.11378
G1 X146.594 Y88.535 E0.14664
G1 X151.169 Y89.503 E0.14662
G1 X153.736 Y90.081 E0.08251
G1 X157.792 Y91.045 E0.13069
G1 X160.355 Y91.681 E0.08281
G1 X163.417 Y92.471 E0.09914
G1 X168.986 Y93.989 E0.18098
G1 X172.569 Y95.019 E0.11690
G1 X177.622 Y96.546 E0.16553
G1 X180.188 Y97.357 E0.08437
G1 X185.261 Y99.033 E0.16752
G1 X188.144 Y100.061 E0.09595
G1 X188.853 Y100.567 E0.02732
G1 X189.199 Y100.918 E0.01544
G1 X189.781 Y101.917 E0.03625
G1 X189.918 Y102.273 E0.01196
G1 X190.039 Y103.158 E0.02802
G1 X189.948 Y103.900 E0.02342
G1 X189.560 Y103.961 F10800.000
G1 F1200.000
G1 X189.661 Y104.688 E0.02301
G1 X189.558 Y105.543 E0.02702
G1 X189.446 Y105.839 E0.00991
G1 X188.913 Y106.766 E0.03353
G1 X188.632 Y107.056 E0.01264
G1 X188.012 Y107.511 E0.02413
G1 X185.149 Y108.536 E0.09533
G1 X180.077 Y110.213 E0.16750
G1 X174.987 Y111.797 E0.16717
G1 X170.413 Y113.143 E0.14949
G1 X166.364 Y114.277 E0.13181
G1 X163.304 Y115.098 E0.09934
G1 X160.263 Y115.883 E0.09847
G1 X157.712 Y116.517 E0.08242
G1 X153.652 Y117.482 E0.13086
G1 X148.571 Y118.602 E0.16314
G1 X143.984 Y119.526 E0.14671
G1 X139.895 Y120.270 E0.13029
G1 X136.313 Y120.854 E0.11381
G1 X132.721 Y121.370 E0.11377
G1 X129.616 Y121.752 E0.09808
G1 X127.071 Y122.016 E0.08024
G1 X125.496 Y122.156 E0.04959
G1 X122.418 Y122.373 E0.09673
G1 X119.769 Y122.494 E0.08314
G1 X116.652 Y122.550 E0.09774
G1 X114.600 Y122.529 E0.06437
G1 X112.993 Y122.479 E0.05041
G1 X110.365 Y122.327 E0.08251
G1 X107.724 Y122.076 E0.08321
G1 X106.630 Y121.940 E0.03455
G1 X105.038 Y121.704 E0.05044
G1 X103.414 Y121.418 E0.05173
G1 X101.293 Y120.961 E0.06801
G1 X100.176 Y120.679 E0.03613
G1 X99.053 Y120.365 E0.03656
G1 X97.955 Y120.024 E0.03605
G1 X96.852 Y119.646 E0.03657
G1 X95.733 Y119.221 E0.03754
G1 X94.623 Y118.756 E0.03773
G1 X93.471 Y118.219 E0.03986
G1 X92.344 Y117.633 E0.03981
G1 X91.719 Y117.279 E0.02254
G1 X90.586 Y116.577 E0.04176
G1 X89.947 Y116.141 E0.02427
G1 X88.834 Y115.302 E0.04371
G1 X88.167 Y114.739 E0.02736
G1 X87.517 Y114.139 E0.02776
G1 X86.891 Y113.504 E0.02793
G1 X86.253 Y112.783 E0.03018
G1 X85.629 Y111.987 E0.03175
G1 X84.957 Y110.992 E0.03763
G1 X84.256 Y109.715 E0.04569
G1 X83.634 Y108.220 E0.05074
G1 X83.004 Y104.677 E0.11283
G1 X82.948 Y103.939 E0.02321
G1 X82.997 Y103.307 E0.01990
G1 X83.510 Y100.145 E0.10043
G1 X84.307 Y98.109 E0.06855
G1 X84.990 Y96.885 E0.04395
G1 X85.615 Y95.963 E0.03492
G1 X86.260 Y95.139 E0.03282
G1 X86.899 Y94.417 E0.03022
G1 X87.530 Y93.779 E0.02814
G1 X88.141 Y93.214 E0.02609
G1 X88.774 Y92.676 E0.02605
G1 X89.930 Y91.800 E0.04549
G1 X91.114 Y91.016 E0.04450
G1 X92.318 Y90.311 E0.04375
G1 X93.529 Y89.683 E0.04278
G1 X95.186 Y88.932 E0.05704
G1 X96.873 Y88.277 E0.05673
G1 X97.964 Y87.903 E0.03617
G1 X99.068 Y87.560 E0.03626
G1 X100.699 Y87.114 E0.05302
M73 Q1 S59
G1 X102.330 Y86.734 E0.05251
G1 X103.971 Y86.409 E0.05244
G1 X105.608 Y86.136 E0.05202
M73 P1 R58
