; generated by PrusaSlicer 2.2.0 on 2020-06-07 at 21:36:51 UTC

; 

; external perimeters extrusion width = 0.45mm
; perimeters extrusion width = 0.45mm
; infill extrusion width = 0.45mm
; solid infill extrusion width = 0.45mm
; top infill extrusion width = 0.40mm
; first layer extrusion width = 0.42mm

M73 P0 R10
M73 Q0 S10
M201 X1000 Y1000 Z200 E5000 ; sets maximum accelerations, mm/sec^2
M203 X200 Y200 Z12 E120 ; sets maximum feedrates, mm/sec
M204 P1250 R1250 T1250 ; sets acceleration (P, T) and retract acceleration (R), mm/sec^2
M205 X8.00 Y8.00 Z0.40 E4.50 ; sets the jerk limits, mm/sec
M205 S0 T0 ; sets the minimum extruding and travel feed rate, mm/sec
M107
M862.3 P "MK3S" ; printer model check
M862.1 P0.4 ; nozzle diameter check
M115 U3.9.0 ; tell printer latest fw version
G90 ; use absolute coordinates
M83 ; extruder relative mode
M104 S230 ; set extruder temp
M140 S85 ; set bed temp
M190 S85 ; wait for bed temp
M109 S230 ; wait for extruder temp
G28 W ; home all without mesh bed level
G80 ; mesh bed leveling
G1 Y-3.0 F1000.0 ; go outside print area
G92 E0.0
G1 X60.0 E9.0 F1000.0 ; intro line
M73 Q0 S10
M73 P0 R10
G1 X100.0 E12.5 F1000.0 ; intro line
G92 E0.0
M221 S95
G21 ; set units to millimeters
G90 ; use absolute coordinates
M83 ; use relative distances for extrusion
M900 K0.12 ; Filament gcode LA 1.5
M900 K45 ; Filament gcode LA 1.0
;BEFORE_LAYER_CHANGE
G92 E0.0
;0.2


G1 E-1.40000 F2100.00000
G1 Z0.200 F10800.000
;AFTER_LAYER_CHANGE
;0.2
G1 Z0.400
G1 X122.786 Y98.069
G1 Z0.200
G1 E1.40000 F2100.00000
M204 S1000
G1 F1200.000
G1 X123.192 Y97.244 E0.02882
G1 X123.747 Y96.602 E0.02660
G1 X124.230 Y96.208 E0.01957
G1 X124.835 Y95.896 E0.02134
G1 X125.489 Y95.724 E0.02120
G1 X135.756 Y95.342 E0.32214
G1 X136.810 Y95.526 E0.03355
G1 X137.738 Y96.051 E0.03342
G1 X138.580 Y96.953 E0.03869
G1 X138.849 Y97.463 E0.01807
G1 X139.021 Y98.017 E0.01820
G1 X139.434 Y108.496 E0.32880
G1 X139.287 Y109.407 E0.02895
G1 X138.880 Y110.236 E0.02895
G1 X138.300 Y110.902 E0.02770
G1 X137.771 Y111.317 E0.02107
G1 X137.117 Y111.627 E0.02270
G1 X136.409 Y111.778 E0.02270
G1 X126.267 Y112.138 E0.31818
G1 X125.365 Y111.990 E0.02868
G1 X124.540 Y111.584 E0.02882
G1 X123.874 Y111.004 E0.02770
G1 X123.459 Y110.476 E0.02107
G1 X123.149 Y109.821 E0.02270
G1 X122.998 Y109.113 E0.02270
G1 X122.638 Y98.972 E0.31818
G1 X122.776 Y98.128 E0.02680
G1 X123.147 Y98.190 F10800.000
G1 F1200.000
G1 X123.524 Y97.427 E0.02670
G1 X124.028 Y96.854 E0.02391
G1 X124.456 Y96.511 E0.01720
G1 X124.993 Y96.240 E0.01886
G1 X125.576 Y96.092 E0.01886
G1 X135.758 Y95.719 E0.31948
G1 X136.691 Y95.883 E0.02968
G1 X137.515 Y96.356 E0.02980
G1 X138.272 Y97.171 E0.03486
G1 X138.660 Y98.135 E0.03258
G1 X139.057 Y108.483 E0.32471
G1 X138.922 Y109.310 E0.02625
G1 X138.548 Y110.054 E0.02612
G1 X138.023 Y110.646 E0.02481
G1 X137.557 Y111.007 E0.01848
G1 X136.978 Y111.276 E0.02001
G1 X136.349 Y111.405 E0.02014
G1 X126.280 Y111.761 E0.31589
G1 X125.463 Y111.625 E0.02600
G1 X124.722 Y111.252 E0.02600
G1 X124.130 Y110.727 E0.02481
G1 X123.769 Y110.261 E0.01848
G1 X123.500 Y109.682 E0.02001
G1 X123.371 Y109.053 E0.02014
G1 X123.015 Y98.985 E0.31589
G1 X123.137 Y98.249 E0.02339
G1 X123.850 Y97.620 F10800.000
G1 F1200.000
G1 X124.675 Y96.818 E0.03608
G1 X125.145 Y96.586 E0.01645
G1 X125.655 Y96.462 E0.01645
G1 X135.757 Y96.096 E0.31694
G1 X136.570 Y96.241 E0.02590
G1 X137.288 Y96.658 E0.02602
G1 X137.962 Y97.386 E0.03111
G1 X138.296 Y98.243 E0.02884
G1 X138.680 Y108.473 E0.32098
G1 X138.560 Y109.203 E0.02319
G1 X138.222 Y109.860 E0.02319
G1 X137.753 Y110.383 E0.02201
G1 X137.351 Y110.690 E0.01585
G1 X136.847 Y110.922 E0.01740
G1 X136.303 Y111.030 E0.01740
G1 X126.296 Y111.384 E0.31397
G1 X125.570 Y111.263 E0.02308
G1 X124.916 Y110.926 E0.02308
G1 X124.393 Y110.457 E0.02201
G1 X124.086 Y110.056 E0.01585
G1 X123.854 Y109.551 E0.01740
G1 X123.746 Y109.007 E0.01740
G1 X123.392 Y99.000 E0.31397
G1 X123.513 Y98.274 E0.02308
G1 X123.822 Y97.673 E0.02119
G1 F8640.000
G1 X124.675 Y96.818 E-0.27884
G1 X125.145 Y96.586 E-0.12113
G1 X125.655 Y96.462 E-0.12113
G1 X129.156 Y96.335 E-0.80891
G1 E-0.07000 F2100.00000
G1 Z0.400 F10800.000
G1 X122.103 Y96.060
G1 Z0.200
G1 E1.40000 F2100.00000
G1 F1200.000
G1 X123.547 Y94.723 E0.06171
G1 X124.391 Y94.337 E0.02911
G1 X125.298 Y94.130 E0.02915
G1 X136.860 Y93.999 E0.36255
G1 X137.589 Y94.203 E0.02374
G1 X138.263 Y94.506 E0.02316
G1 X139.514 Y95.537 E0.05083
G1 X140.280 Y96.707 E0.04387
G1 X140.615 Y97.793 E0.03561
G1 X140.834 Y109.039 E0.35268
G1 X140.573 Y110.289 E0.04005
G1 X139.969 Y111.420 E0.04019
G1 X138.521 Y112.759 E0.06183
G1 X137.594 Y113.172 E0.03184
G1 X136.626 Y113.367 E0.03095
G1 X125.735 Y113.538 E0.34153
G1 X124.487 Y113.277 E0.03998
G1 X123.356 Y112.673 E0.04019
G1 X122.017 Y111.226 E0.06183
G1 X121.604 Y110.298 E0.03184
G1 X121.409 Y109.330 E0.03095
G1 X121.238 Y98.439 E0.34153
G1 X121.499 Y97.191 E0.03998
G1 X122.074 Y96.113 E0.03830
G1 X122.406 Y96.292 F10800.000
G1 F1200.000
G1 X123.731 Y95.053 E0.05689
G1 X124.530 Y94.688 E0.02754
G1 X125.360 Y94.503 E0.02668
G1 X136.785 Y94.370 E0.35825
G1 X137.448 Y94.553 E0.02155
G1 X138.084 Y94.839 E0.02188
G1 X139.250 Y95.808 E0.04752
G1 X139.949 Y96.889 E0.04035
G1 X140.246 Y97.876 E0.03233
G1 X140.457 Y109.024 E0.34959
G1 X140.210 Y110.183 E0.03717
G1 X139.653 Y111.213 E0.03670
G1 X138.338 Y112.428 E0.05613
G1 X137.497 Y112.807 E0.02893
G1 X136.602 Y112.990 E0.02864
G1 X125.750 Y113.161 E0.34030
G1 X124.592 Y112.914 E0.03712
G1 X123.563 Y112.357 E0.03670
G1 X122.348 Y111.043 E0.05613
G1 X121.969 Y110.201 E0.02893
G1 X121.786 Y109.306 E0.02864
G1 X121.615 Y98.455 E0.34030
G1 X121.862 Y97.297 E0.03712
G1 X122.377 Y96.345 E0.03392
G1 X122.709 Y96.525 F10800.000
G1 F1200.000
G1 X122.736 Y96.474 E0.00180
G1 X123.917 Y95.383 E0.05041
G1 X124.632 Y95.051 E0.02472
G1 X125.423 Y94.875 E0.02542
G1 X136.710 Y94.740 E0.35393
G1 X137.333 Y94.912 E0.02025
G1 X137.905 Y95.172 E0.01969
G1 X138.985 Y96.077 E0.04421
G1 X139.616 Y97.068 E0.03681
G1 X139.877 Y97.957 E0.02908
G1 X140.079 Y109.010 E0.34659
G1 X139.865 Y110.028 E0.03263
G1 X139.336 Y111.006 E0.03486
G1 X138.154 Y112.098 E0.05045
G1 X137.399 Y112.443 E0.02603
G1 X136.578 Y112.613 E0.02629
G1 X125.765 Y112.783 E0.33907
G1 X124.748 Y112.569 E0.03260
G1 X123.770 Y112.040 E0.03486
G1 X122.678 Y110.858 E0.05045
G1 X122.333 Y110.103 E0.02603
G1 X122.163 Y109.282 E0.02629
G1 X121.993 Y98.469 E0.33907
G1 X122.207 Y97.452 E0.03260
G1 X122.680 Y96.578 E0.03118
G1 X123.051 Y96.683 F10800.000
G1 F1200.000
G1 X124.102 Y95.713 E0.04485
G1 X124.771 Y95.402 E0.02313
G1 X125.484 Y95.248 E0.02288
G1 X136.637 Y95.111 E0.34971
G1 X137.191 Y95.262 E0.01801
G1 X137.725 Y95.504 E0.01837
G1 X138.719 Y96.345 E0.04083
G1 X139.282 Y97.244 E0.03325
G1 X139.508 Y98.037 E0.02584
G1 X139.702 Y108.994 E0.34362
G1 X139.503 Y109.921 E0.02972
G1 X139.020 Y110.797 E0.03135
G1 X137.970 Y111.767 E0.04483
G1 X137.262 Y112.091 E0.02442
G1 X136.555 Y112.237 E0.02264
G1 X125.781 Y112.406 E0.33784
G1 X124.855 Y112.207 E0.02970
G1 X123.979 Y111.725 E0.03135
G1 X123.009 Y110.675 E0.04483
G1 X122.685 Y109.966 E0.02442
G1 X122.539 Y109.259 E0.02264
G1 X122.370 Y98.485 E0.33784
G1 X122.569 Y97.559 E0.02970
G1 X123.022 Y96.736 E0.02947
G1 F8640.000
G1 X124.102 Y95.713 E-0.34346
G1 X124.771 Y95.402 E-0.17033
G1 X125.484 Y95.248 E-0.16847
G1 X128.289 Y95.213 E-0.64774
G1 E-0.07000 F2100.00000
G1 Z0.400 F10800.000
G1 X124.244 Y97.608
G1 Z0.200
G1 E1.40000 F2100.00000
G1 F1200.000
G1 X124.859 Y97.022 E0.02663
G1 X125.224 Y96.842 E0.01277
G1 X125.619 Y96.751 E0.01273
G1 X136.358 Y96.596 E0.33675
G1 X136.629 Y96.664 E0.00876
G1 X136.999 Y96.831 E0.01272
G1 X137.632 Y97.397 E0.02663
G1 X137.927 Y97.915 E0.01870
G1 X138.025 Y98.324 E0.01318
G1 X138.192 Y108.934 E0.33271
G1 X138.107 Y109.345 E0.01318
G1 X137.828 Y109.872 E0.01870
G1 X137.213 Y110.458 E0.02663
G1 X136.848 Y110.638 E0.01277
G1 X136.452 Y110.730 E0.01273
G1 X125.842 Y110.897 E0.33272
G1 X125.430 Y110.811 E0.01318
G1 X124.904 Y110.532 E0.01870
G1 X124.318 Y109.917 E0.02663
G1 X124.138 Y109.552 E0.01277
G1 X124.046 Y109.157 E0.01273
G1 X123.879 Y98.546 E0.33272
G1 X123.965 Y98.135 E0.01318
G1 X124.216 Y97.661 E0.01681
G1 X124.530 Y97.855 F10800.000
G1 F1200.000
G1 X125.053 Y97.347 E0.02284
G1 X125.371 Y97.190 E0.01111
G1 X125.645 Y97.127 E0.00882
G1 X136.295 Y96.968 E0.33397
G1 X136.491 Y97.015 E0.00631
G1 X136.815 Y97.162 E0.01115
G1 X137.353 Y97.653 E0.02284
G1 X137.584 Y98.072 E0.01501
G1 X137.649 Y98.349 E0.00892
G1 X137.815 Y108.920 E0.33148
G1 X137.759 Y109.199 E0.00892
G1 X137.541 Y109.626 E0.01501
G1 X137.019 Y110.133 E0.02284
G1 X136.701 Y110.290 E0.01111
G1 X136.427 Y110.353 E0.00882
G1 X125.856 Y110.519 E0.33149
G1 X125.577 Y110.463 E0.00892
G1 X125.150 Y110.246 E0.01501
G1 X124.643 Y109.723 E0.02284
G1 X124.486 Y109.405 E0.01111
G1 X124.423 Y109.131 E0.00882
G1 X124.257 Y98.560 E0.33149
G1 X124.313 Y98.281 E0.00892
G1 X124.503 Y97.908 E0.01313
G1 X124.663 Y98.421 F10800.000
G1 F1200.000
G1 X124.821 Y98.097 E0.01131
G1 X125.248 Y97.671 E0.01890
G1 X125.517 Y97.539 E0.00940
G1 X125.670 Y97.504 E0.00492
G1 X136.238 Y97.341 E0.33138
G1 X136.355 Y97.367 E0.00377
G1 X136.630 Y97.492 E0.00947
G1 X137.070 Y97.904 E0.01890
G1 X137.238 Y98.224 E0.01131
G1 X137.272 Y98.374 E0.00484
G1 X137.438 Y108.907 E0.33030
G1 X137.408 Y109.059 E0.00484
G1 X137.251 Y109.383 E0.01131
G1 X136.824 Y109.809 E0.01890
G1 X136.555 Y109.942 E0.00940
G1 X136.402 Y109.976 E0.00492
G1 X125.869 Y110.142 E0.33030
G1 X125.717 Y110.113 E0.00484
G1 X125.393 Y109.955 E0.01131
G1 X124.967 Y109.528 E0.01890
G1 X124.834 Y109.259 E0.00940
G1 X124.800 Y109.106 E0.00492
G1 X124.634 Y98.573 E0.33030
G1 X124.652 Y98.480 E0.00296
G1 X125.017 Y98.553 F10800.000
G1 F1200.000
G1 X125.117 Y98.333 E0.00757
G1 X125.445 Y97.994 E0.01477
G1 X125.693 Y97.881 E0.00856
G1 X136.191 Y97.716 E0.32920
G1 X136.443 Y97.821 E0.00856
G1 X136.782 Y98.149 E0.01477
G1 X136.895 Y98.398 E0.00856
G1 X137.060 Y108.896 E0.32920
G1 X136.955 Y109.148 E0.00856
G1 X136.627 Y109.486 E0.01477
G1 X136.378 Y109.599 E0.00856
G1 X125.880 Y109.765 E0.32920
G1 X125.628 Y109.659 E0.00856
G1 X125.290 Y109.331 E0.01477
G1 X125.177 Y109.083 E0.00856
G1 X125.012 Y98.612 E0.32834
G1 X125.417 Y98.565 F10800.000
G1 F1200.000
G1 X125.687 Y98.287 E0.01215
G1 X125.755 Y98.257 E0.00235
G1 X136.141 Y98.094 E0.32568
G1 X136.211 Y98.121 E0.00235
G1 X136.489 Y98.391 E0.01215
G1 X136.519 Y98.460 E0.00235
G1 X136.682 Y108.846 E0.32568
G1 X136.655 Y108.915 E0.00235
G1 X136.385 Y109.193 E0.01215
G1 X136.316 Y109.223 E0.00235
G1 X125.930 Y109.387 E0.32568
G1 X125.861 Y109.359 E0.00235
G1 X125.582 Y109.089 E0.01215
G1 X125.553 Y109.021 E0.00235
G1 X125.395 Y98.621 E0.32612
G1 X125.768 Y98.744 F10800.000
G1 F1200.000
G1 X125.877 Y98.632 E0.00490
G1 X136.032 Y98.472 E0.31843
G1 X136.144 Y98.581 E0.00490
G1 X136.304 Y108.736 E0.31843
G1 X136.195 Y108.848 E0.00490
G1 X126.040 Y109.008 E0.31843
G1 X125.928 Y108.899 E0.00490
G1 X125.769 Y98.804 E0.31655
G1 X126.252 Y99.105 F10800.000
G1 F1200.000
G1 X135.671 Y98.957 E0.29535
G1 X135.819 Y108.376 E0.29536
G1 X126.400 Y108.524 E0.29536
G1 X126.253 Y99.165 E0.29348
G1 X126.143 Y98.720 F10800.000
G1 X126.173 Y99.166
G1 F1200.000
G1 X126.171 Y99.026 E0.00438
G1 X135.750 Y98.875 E0.30037
G1 X135.900 Y108.454 E0.30037
G1 X126.322 Y108.605 E0.30037
G1 X126.174 Y99.226 E0.29410
G1 X126.270 Y99.065 F10800.000
;BEFORE_LAYER_CHANGE
G92 E0.0
;0.3


G1 F8640.000
G1 X126.171 Y99.026 E-0.04613
G1 X131.731 Y98.939 E-1.28387
G1 E-0.07000 F2100.00000
G1 Z0.400 F10800.000
;AFTER_LAYER_CHANGE
;0.3
M104 S240 ; set temperature
M140 S90 ; set bed temperature
G1 X136.810 Y95.526
G1 Z0.300
G1 E1.40000 F2100.00000
G1 F900
G1 X137.738 Y96.051 E0.01766
G1 X138.580 Y96.953 E0.02045
G1 X138.849 Y97.463 E0.00955
G1 X139.021 Y98.017 E0.00962
G1 X139.434 Y108.496 E0.17375
G1 X139.287 Y109.407 E0.01530
G1 X138.880 Y110.236 E0.01530
G1 X138.300 Y110.902 E0.01464
G1 X137.771 Y111.317 E0.01113
G1 X137.117 Y111.627 E0.01200
G1 X136.409 Y111.778 E0.01200
G1 X126.267 Y112.138 E0.16814
G1 X125.365 Y111.990 E0.01516
G1 X124.540 Y111.584 E0.01523
G1 X123.874 Y111.004 E0.01464
G1 X123.459 Y110.476 E0.01113
G1 X123.149 Y109.821 E0.01200
G1 X122.998 Y109.113 E0.01200
G1 X122.638 Y98.972 E0.16814
G1 X122.786 Y98.069 E0.01516
G1 X123.192 Y97.244 E0.01523
G1 X123.747 Y96.602 E0.01406
G1 X124.230 Y96.208 E0.01034
G1 X124.835 Y95.896 E0.01128
G1 X125.489 Y95.724 E0.01121
G1 X135.756 Y95.342 E0.17023
G1 X136.751 Y95.515 E0.01674
G1 X136.687 Y95.882 F10800.000
G1 F900
G1 X137.515 Y96.356 E0.01581
G1 X138.272 Y97.171 E0.01842
G1 X138.660 Y98.135 E0.01722
G1 X139.057 Y108.483 E0.17159
G1 X138.922 Y109.310 E0.01387
G1 X138.548 Y110.054 E0.01381
G1 X138.023 Y110.646 E0.01311
G1 X137.557 Y111.007 E0.00976
G1 X136.978 Y111.276 E0.01057
G1 X136.349 Y111.405 E0.01064
G1 X126.280 Y111.761 E0.16693
G1 X125.463 Y111.625 E0.01374
G1 X124.722 Y111.252 E0.01374
G1 X124.130 Y110.727 E0.01311
G1 X123.769 Y110.261 E0.00976
G1 X123.500 Y109.682 E0.01057
G1 X123.371 Y109.053 E0.01064
G1 X123.015 Y98.985 E0.16693
G1 X123.151 Y98.167 E0.01374
G1 X123.524 Y97.427 E0.01374
G1 X124.028 Y96.854 E0.01264
G1 X124.456 Y96.511 E0.00909
G1 X124.993 Y96.240 E0.00997
G1 X125.576 Y96.092 E0.00997
G1 X135.758 Y95.719 E0.16883
G1 X136.628 Y95.872 E0.01462
G1 X136.562 Y96.239 F10800.000
G1 F900
G1 X137.288 Y96.658 E0.01388
G1 X137.962 Y97.386 E0.01644
G1 X138.296 Y98.243 E0.01524
G1 X138.680 Y108.473 E0.16962
G1 X138.560 Y109.203 E0.01226
G1 X138.222 Y109.860 E0.01226
G1 X137.753 Y110.383 E0.01163
G1 X137.351 Y110.690 E0.00838
G1 X136.847 Y110.922 E0.00919
G1 X136.303 Y111.030 E0.00919
G1 X126.296 Y111.384 E0.16592
G1 X125.570 Y111.263 E0.01219
G1 X124.916 Y110.926 E0.01219
G1 X124.393 Y110.457 E0.01163
G1 X124.086 Y110.056 E0.00838
G1 X123.854 Y109.551 E0.00919
G1 X123.746 Y109.007 E0.00919
G1 X123.392 Y99.000 E0.16592
G1 X123.513 Y98.274 E0.01219
G1 X123.850 Y97.620 E0.01219
G1 X124.675 Y96.818 E0.01906
G1 X125.145 Y96.586 E0.00869
G1 X125.655 Y96.462 E0.00869
G1 X135.757 Y96.096 E0.16749
G1 X136.503 Y96.229 E0.01256
G1 F8640.000
G1 X137.288 Y96.658 E-0.20648
G1 X137.962 Y97.386 E-0.22912
G1 X138.296 Y98.243 E-0.21237
G1 X138.407 Y101.194 E-0.68203
G1 E-0.07000 F2100.00000
G1 Z0.500 F10800.000
G1 X135.572 Y98.833
G1 Z0.300
G1 E1.40000 F2100.00000
M204 S800
G1 F900
G1 X135.943 Y108.276 E0.16837
G1 X126.500 Y108.647 E0.16837
G1 X126.129 Y99.204 E0.16837
G1 X135.512 Y98.836 E0.16730
M73 Q10 S9
M204 S1000
G1 X135.954 Y98.715 F10800.000
G1 X135.510 Y98.786
M204 S800
G1 F900
G1 X135.620 Y98.781 E0.00196
G1 X135.995 Y108.324 E0.17015
M73 P10 R9
G1 X126.452 Y108.699 E0.17015
G1 X126.077 Y99.156 E0.17015
G1 X135.450 Y98.788 E0.16712
M204 S1000
G1 X135.591 Y98.860 F10800.000
;BEFORE_LAYER_CHANGE
G92 E0.0
;0.4


G1 F8640.000
G1 X135.620 Y98.781 E-0.03925
G1 X135.839 Y104.367 E-1.29075
G1 E-0.07000 F2100.00000
G1 Z0.500 F10800.000
;AFTER_LAYER_CHANGE
;0.4
G1 X136.810 Y95.526
G1 Z0.400
G1 E1.40000 F2100.00000
G1 F900
G1 X137.738 Y96.051 E0.01766
G1 X138.580 Y96.953 E0.02045
G1 X138.849 Y97.463 E0.00955
G1 X139.021 Y98.017 E0.00962
G1 X139.434 Y108.496 E0.17375
G1 X139.287 Y109.407 E0.01530
G1 X138.880 Y110.236 E0.01530
G1 X138.300 Y110.902 E0.01464
G1 X137.771 Y111.317 E0.01113
G1 X137.117 Y111.627 E0.01200
G1 X136.409 Y111.778 E0.01200
G1 X126.267 Y112.138 E0.16814
G1 X125.365 Y111.990 E0.01516
G1 X124.540 Y111.584 E0.01523
G1 X123.874 Y111.004 E0.01464
G1 X123.459 Y110.476 E0.01113
G1 X123.149 Y109.821 E0.01200
G1 X122.998 Y109.113 E0.01200
G1 X122.638 Y98.972 E0.16814
G1 X122.786 Y98.069 E0.01516
G1 X123.192 Y97.244 E0.01523
G1 X123.747 Y96.602 E0.01406
G1 X124.230 Y96.208 E0.01034
G1 X124.835 Y95.896 E0.01128
G1 X125.489 Y95.724 E0.01121
G1 X135.756 Y95.342 E0.17023
G1 X136.751 Y95.515 E0.01674
G1 X136.687 Y95.882 F10800.000
G1 F900
G1 X137.515 Y96.356 E0.01581
G1 X138.272 Y97.171 E0.01842
G1 X138.660 Y98.135 E0.01722
G1 X139.057 Y108.483 E0.17159
G1 X138.922 Y109.310 E0.01387
G1 X138.548 Y110.054 E0.01381
G1 X138.023 Y110.646 E0.01311
